svgs/newquiz.svg

<svg xmlns="http://www.w3.org/2000/svg" viewBox="0 0 192 192"><path d="M84.109 175.34c-8.501-1.285-15.974-3.648-23.732-7.503-15.967-7.934-28.323-20.286-36.245-36.234-2.665-5.366-4.257-9.537-5.695-14.927-1.916-7.177-2.205-9.495-2.374-19.028-.138-7.821-.083-9.291.501-13.284 2.472-16.917 9.82-31.795 21.992-44.531C49.632 28.243 64.662 20.205 81.249 17c3.786-.731 5.229-.84 12.825-.967 11.703-.195 17.69.619 26.916 3.662 20.572 6.784 37.04 20.992 46.705 40.293C173.56 71.702 176 82.274 176 95.972c0 13.801-2.438 24.249-8.423 36.1-7.75 15.347-19.949 27.629-35.105 35.347-8.206 4.178-15.857 6.608-25.078 7.966-5.641.831-17.648.807-23.285-.045Zm22.33-24.658c17.505-3.5 32.277-14.934 39.876-30.865 1.777-3.724 3.333-8.406 4.283-12.888.754-3.554.834-4.573.846-10.801.013-7.383-.292-9.879-1.882-15.389-4.735-16.409-16.466-29.596-32.217-36.216-3.98-1.672-10.27-3.35-14.563-3.884-4.472-.557-13.247-.246-17.57.621-22.263 4.469-39.443 21.707-43.988 44.137-.622 3.072-.717 4.477-.717 10.575 0 6.113.094 7.499.723 10.604 4.558 22.51 22.062 39.92 44.299 44.063 4.876.908 4.99.916 11.55.817 4.579-.069 6.722-.247 9.36-.774Zm-16.015-23.038c-.566-.279-1.375-1.097-1.797-1.818-.635-1.083-.768-1.726-.768-3.705v-2.395h16.646l-.142 2.457c-.163 2.809-.792 4.178-2.424 5.278-.971.654-1.379.704-5.765.697-3.713-.006-4.94-.115-5.75-.514Zm-17.255-8.856c-1.241-1.24-.855-2.335 1.773-5.036 2.047-2.104 2.551-2.465 3.438-2.465 1.336 0 2.29.935 2.29 2.245 0 .824-.418 1.412-2.443 3.438-2.026 2.026-2.614 2.444-3.439 2.444-.577 0-1.256-.262-1.619-.626Zm40.575-1.818c-1.948-1.949-2.443-2.631-2.443-3.369 0-1.475.779-2.314 2.151-2.314 1.06 0 1.419.247 3.577 2.465 2.673 2.747 3.005 3.733 1.675 4.982-1.34 1.259-2.266.93-4.96-1.764Zm-26.495-1.854c-.463-1.687-1.142-2.582-3.937-5.188-1.367-1.275-2.953-3.096-3.523-4.047-6.919-11.53-.319-26.182 12.865-28.558 5.957-1.073 11.836.694 16.248 4.885 6.272 5.958 7.813 14.444 4.031 22.203-.911 1.869-1.791 2.993-4.343 5.547-2.507 2.507-3.322 3.542-3.757 4.766l-.555 1.564H87.571Zm19.993-18.68c.635-.767.217-4.111-.755-6.029-1.589-3.136-4.418-5.229-8.095-5.989-2.228-.46-3.344.048-3.344 1.521 0 1.126.427 1.467 2.188 1.746 3.882.614 6.876 3.576 6.876 6.801 0 1.424.764 2.423 1.855 2.423.485 0 1.058-.213 1.275-.473Zm-42.825 1.099c-.798-.799-.827-2.534-.053-3.234.463-.419 1.263-.517 4.207-.517 3.338 0 3.688.056 4.273.684.813.872.809 1.826-.01 2.868-.633.804-.734.824-4.22.824-3.155 0-3.645-.073-4.197-.625Zm54.71-.059c-.811-.871-.817-2.262-.012-3.067.552-.553 1.042-.625 4.219-.625 3.178 0 3.667.072 4.22.625.347.347.625 1.042.625 1.563 0 .521-.278 1.215-.625 1.563-.553.552-1.042.625-4.208.625-3.282 0-3.635-.058-4.219-.684Zm-44.14-19.263c-2.025-2.026-2.443-2.614-2.443-3.438 0-.578.262-1.257.625-1.62.363-.363 1.042-.625 1.619-.625.825 0 1.413.418 3.439 2.444 2.025 2.025 2.443 2.613 2.443 3.438 0 .578-.262 1.256-.625 1.619-.363.364-1.042.625-1.62.625-.824 0-1.412-.417-3.438-2.443Zm36.939 1.818c-.371-.37-.625-1.041-.625-1.648 0-.861.385-1.406 2.429-3.438 2.023-2.011 2.598-2.415 3.438-2.415 1.304 0 2.259.949 2.259 2.245 0 .824-.418 1.412-2.443 3.438-2.026 2.026-2.614 2.443-3.439 2.443-.577 0-1.256-.261-1.619-.625Zm-17.449-7.287c-.614-.653-.679-1.06-.679-4.219 0-3.999.361-4.747 2.295-4.747 1.804 0 2.08.637 2.08 4.792 0 3.231-.071 3.719-.625 4.273-.843.843-2.228.798-3.071-.099Z"/></svg>

<svg
    xmlns="http://www.w3.org/2000/svg"
    viewBox="0 0 192 192"
    id="vector">
    <path
        id="path"
        d="M 84.109 175.34 C 75.608 174.055 68.135 171.692 60.377 167.837 C 44.41 159.903 32.054 147.551 24.132 131.603 C 21.467 126.237 19.875 122.066 18.437 116.676 C 16.521 109.499 16.232 107.181 16.063 97.648 C 15.925 89.827 15.98 88.357 16.564 84.364 C 19.036 67.447 26.384 52.569 38.556 39.833 C 49.632 28.243 64.662 20.205 81.249 17 C 85.035 16.269 86.478 16.16 94.074 16.033 C 105.777 15.838 111.764 16.652 120.99 19.695 C 141.562 26.479 158.03 40.687 167.695 59.988 C 173.56 71.702 176 82.274 176 95.972 C 176 109.773 173.562 120.221 167.577 132.072 C 159.827 147.419 147.628 159.701 132.472 167.419 C 124.266 171.597 116.615 174.027 107.394 175.385 C 101.753 176.216 89.746 176.192 84.109 175.34 Z M 106.439 150.682 C 123.944 147.182 138.716 135.748 146.315 119.817 C 148.092 116.093 149.648 111.411 150.598 106.929 C 151.352 103.375 151.432 102.356 151.444 96.128 C 151.457 88.745 151.152 86.249 149.562 80.739 C 144.827 64.33 133.096 51.143 117.345 44.523 C 113.365 42.851 107.075 41.173 102.782 40.639 C 98.31 40.082 89.535 40.393 85.212 41.26 C 62.949 45.729 45.769 62.967 41.224 85.397 C 40.602 88.469 40.507 89.874 40.507 95.972 C 40.507 102.085 40.601 103.471 41.23 106.576 C 45.788 129.086 63.292 146.496 85.529 150.639 C 90.405 151.547 90.519 151.555 97.079 151.456 C 101.658 151.387 103.801 151.209 106.439 150.682 Z M 90.424 127.644 C 89.858 127.365 89.049 126.547 88.627 125.826 C 87.992 124.743 87.859 124.1 87.859 122.121 L 87.859 119.726 L 104.505 119.726 L 104.363 122.183 C 104.2 124.992 103.571 126.361 101.939 127.461 C 100.968 128.115 100.56 128.165 96.174 128.158 C 92.461 128.152 91.234 128.043 90.424 127.644 Z M 73.169 118.788 C 71.928 117.548 72.314 116.453 74.942 113.752 C 76.989 111.648 77.493 111.287 78.38 111.287 C 79.716 111.287 80.67 112.222 80.67 113.532 C 80.67 114.356 80.252 114.944 78.227 116.97 C 76.201 118.996 75.613 119.414 74.788 119.414 C 74.211 119.414 73.532 119.152 73.169 118.788 Z M 113.744 116.97 C 111.796 115.021 111.301 114.339 111.301 113.601 C 111.301 112.126 112.08 111.287 113.452 111.287 C 114.512 111.287 114.871 111.534 117.029 113.752 C 119.702 116.499 120.034 117.485 118.704 118.734 C 117.364 119.993 116.438 119.664 113.744 116.97 Z M 87.249 115.116 C 86.786 113.429 86.107 112.534 83.312 109.928 C 81.945 108.653 80.359 106.832 79.789 105.881 C 72.87 94.351 79.47 79.699 92.654 77.323 C 98.611 76.25 104.49 78.017 108.902 82.208 C 115.174 88.166 116.715 96.652 112.933 104.411 C 112.022 106.28 111.142 107.404 108.59 109.958 C 106.083 112.465 105.268 113.5 104.833 114.724 L 104.278 116.288 L 87.571 116.288 Z M 107.242 96.436 C 107.877 95.669 107.459 92.325 106.487 90.407 C 104.898 87.271 102.069 85.178 98.392 84.418 C 96.164 83.958 95.048 84.466 95.048 85.939 C 95.048 87.065 95.475 87.406 97.236 87.685 C 101.118 88.299 104.112 91.261 104.112 94.486 C 104.112 95.91 104.876 96.909 105.967 96.909 C 106.452 96.909 107.025 96.696 107.242 96.436 Z M 64.417 97.535 C 63.619 96.736 63.59 95.001 64.364 94.301 C 64.827 93.882 65.627 93.784 68.571 93.784 C 71.909 93.784 72.259 93.84 72.844 94.468 C 73.657 95.34 73.653 96.294 72.834 97.336 C 72.201 98.14 72.1 98.16 68.614 98.16 C 65.459 98.16 64.969 98.087 64.417 97.535 Z M 119.127 97.476 C 118.316 96.605 118.31 95.214 119.115 94.409 C 119.667 93.856 120.157 93.784 123.334 93.784 C 126.512 93.784 127.001 93.856 127.554 94.409 C 127.901 94.756 128.179 95.451 128.179 95.972 C 128.179 96.493 127.901 97.187 127.554 97.535 C 127.001 98.087 126.512 98.16 123.346 98.16 C 120.064 98.16 119.711 98.102 119.127 97.476 Z M 74.987 78.213 C 72.962 76.187 72.544 75.599 72.544 74.775 C 72.544 74.197 72.806 73.518 73.169 73.155 C 73.532 72.792 74.211 72.53 74.788 72.53 C 75.613 72.53 76.201 72.948 78.227 74.974 C 80.252 76.999 80.67 77.587 80.67 78.412 C 80.67 78.99 80.408 79.668 80.045 80.031 C 79.682 80.395 79.003 80.656 78.425 80.656 C 77.601 80.656 77.013 80.239 74.987 78.213 Z M 111.926 80.031 C 111.555 79.661 111.301 78.99 111.301 78.383 C 111.301 77.522 111.686 76.977 113.73 74.945 C 115.753 72.934 116.328 72.53 117.168 72.53 C 118.472 72.53 119.427 73.479 119.427 74.775 C 119.427 75.599 119.009 76.187 116.984 78.213 C 114.958 80.239 114.37 80.656 113.545 80.656 C 112.968 80.656 112.289 80.395 111.926 80.031 Z M 94.477 72.744 C 93.863 72.091 93.798 71.684 93.798 68.525 C 93.798 64.526 94.159 63.778 96.093 63.778 C 97.897 63.778 98.173 64.415 98.173 68.57 C 98.173 71.801 98.102 72.289 97.548 72.843 C 96.705 73.686 95.32 73.641 94.477 72.744 Z"
        fill="#000000"
        stroke-width="12"/>
</svg>
